images/svg/brand.svg

<svg width="40" height="40" viewBox="0 0 40 40" fill="none" xmlns="http://www.w3.org/2000/svg">
<path fill-rule="evenodd" clip-rule="evenodd" d="M8.37555 17.7637C7.74292 18.3737 6.88354 18.75 5.9375 18.75C3.99902 18.75 2.42188 17.1729 2.42188 15.2344C2.42188 13.2959 3.99902 11.7188 5.9375 11.7188C7.87598 11.7188 9.45312 13.2959 9.45312 15.2344C9.45312 15.3815 9.44305 15.5258 9.42535 15.668L12.8745 17.3926C13.5071 16.7825 14.3665 16.4062 15.3125 16.4062C15.8545 16.4062 16.3684 16.5298 16.8274 16.7499L21.5155 12.0618C21.2955 11.6028 21.1719 11.0889 21.1719 10.5469C21.1719 8.6084 22.749 7.03125 24.6875 7.03125C25.4074 7.03125 26.077 7.24884 26.6348 7.62146L30.7077 4.56696C30.6033 4.23492 30.5469 3.88184 30.5469 3.51562C30.5469 1.57715 32.124 0 34.0625 0C36.001 0 37.5781 1.57715 37.5781 3.51562C37.5781 5.4541 36.001 7.03125 34.0625 7.03125C33.3426 7.03125 32.673 6.81366 32.1152 6.44104L28.0423 9.49554C28.1467 9.82758 28.2031 10.1807 28.2031 10.5469C28.2031 12.4854 26.626 14.0625 24.6875 14.0625C24.1455 14.0625 23.6316 13.9389 23.1726 13.7189L18.4845 18.407C18.7045 18.866 18.8281 19.3799 18.8281 19.9219C18.8281 21.8604 17.251 23.4375 15.3125 23.4375C13.374 23.4375 11.7969 21.8604 11.7969 19.9219C11.7969 19.7748 11.8069 19.6304 11.8246 19.4882L8.37555 17.7637ZM35.2344 3.51562C35.2344 2.86957 34.7086 2.34375 34.0625 2.34375C33.4164 2.34375 32.8906 2.86957 32.8906 3.51562C32.8906 4.16168 33.4164 4.6875 34.0625 4.6875C34.7086 4.6875 35.2344 4.16168 35.2344 3.51562ZM24.6875 9.375C25.3336 9.375 25.8594 9.90082 25.8594 10.5469C25.8594 11.1929 25.3336 11.7188 24.6875 11.7188C24.0414 11.7188 23.5156 11.1929 23.5156 10.5469C23.5156 9.90082 24.0414 9.375 24.6875 9.375ZM16.4844 19.9219C16.4844 19.2758 15.9586 18.75 15.3125 18.75C14.6664 18.75 14.1406 19.2758 14.1406 19.9219C14.1406 20.5679 14.6664 21.0938 15.3125 21.0938C15.9586 21.0938 16.4844 20.5679 16.4844 19.9219ZM5.9375 14.0625C6.58356 14.0625 7.10938 14.5883 7.10938 15.2344C7.10938 15.8804 6.58356 16.4062 5.9375 16.4062C5.29144 16.4062 4.76562 15.8804 4.76562 15.2344C4.76562 14.5883 5.29144 14.0625 5.9375 14.0625ZM37.5781 37.6562H38.8281C39.4754 37.6562 40 38.1808 40 38.8281C40 39.4754 39.4754 40 38.8281 40H1.17188C0.524597 40 0 39.4754 0 38.8281C0 38.1808 0.524597 37.6562 1.17188 37.6562H2.42188V24.6094C2.42188 23.9621 2.94647 23.4375 3.59375 23.4375H8.28125C8.92853 23.4375 9.45312 23.9621 9.45312 24.6094V37.6562H11.7969V29.2969C11.7969 28.6496 12.3215 28.125 12.9688 28.125H17.6562C18.3035 28.125 18.8281 28.6496 18.8281 29.2969V37.6562H21.1719V19.9219C21.1719 19.2746 21.6965 18.75 22.3438 18.75H27.0312C27.6785 18.75 28.2031 19.2746 28.2031 19.9219V37.6562H30.5469V12.8906C30.5469 12.2433 31.0715 11.7188 31.7188 11.7188H36.4062C37.0535 11.7188 37.5781 12.2433 37.5781 12.8906V37.6562ZM35.2344 37.6562V14.0625H32.8906V37.6562H35.2344ZM23.5156 21.0938H25.8594V37.6562H23.5156V21.0938ZM16.4844 37.6562V30.4688H14.1406V37.6562H16.4844ZM4.76562 25.7812H7.10938V37.6562H4.76562V25.7812Z" fill="#2BD0D0"/>
</svg>

<svg xmlns="http://www.w3.org/2000/svg" width="40" height="40" fill="none"><path fill="#2BD0D0" fill-rule="evenodd" d="M8.376 17.764a3.503 3.503 0 0 1-2.438.986 3.52 3.52 0 0 1-3.516-3.516 3.52 3.52 0 0 1 3.515-3.515 3.52 3.52 0 0 1 3.488 3.949l3.45 1.725a3.502 3.502 0 0 1 3.952-.643l4.688-4.688a3.496 3.496 0 0 1-.343-1.515 3.52 3.52 0 0 1 3.515-3.516c.72 0 1.39.218 1.948.59l4.073-3.054A3.52 3.52 0 0 1 34.063 0a3.52 3.52 0 0 1 3.515 3.516 3.52 3.52 0 0 1-3.516 3.515c-.72 0-1.389-.217-1.947-.59l-4.073 3.055a3.52 3.52 0 0 1-3.355 4.567 3.496 3.496 0 0 1-1.514-.344l-4.688 4.688a3.52 3.52 0 0 1-3.172 5.03 3.52 3.52 0 0 1-3.488-3.949l-3.45-1.724ZM35.234 3.516c0-.646-.525-1.172-1.172-1.172-.646 0-1.171.526-1.171 1.172 0 .646.525 1.171 1.172 1.171.646 0 1.171-.525 1.171-1.171ZM24.687 9.375c.647 0 1.172.526 1.172 1.172 0 .646-.525 1.172-1.172 1.172a1.173 1.173 0 0 1-1.171-1.172c0-.646.525-1.172 1.172-1.172Zm-8.203 10.547c0-.646-.525-1.172-1.172-1.172-.646 0-1.171.526-1.171 1.172 0 .646.525 1.172 1.171 1.172.647 0 1.172-.526 1.172-1.172Zm-10.547-5.86c.647 0 1.172.526 1.172 1.172 0 .646-.525 1.172-1.171 1.172a1.173 1.173 0 0 1-1.172-1.172c0-.646.525-1.171 1.171-1.171Zm31.641 23.594h1.25a1.172 1.172 0 1 1 0 2.344H1.172a1.172 1.172 0 1 1 0-2.344h1.25V24.61c0-.647.524-1.172 1.172-1.172H8.28c.648 0 1.172.525 1.172 1.172v13.047h2.344v-8.36c0-.646.524-1.171 1.172-1.171h4.687c.648 0 1.172.525 1.172 1.172v8.36h2.344V19.921c0-.647.524-1.172 1.172-1.172h4.687c.648 0 1.172.525 1.172 1.172v17.734h2.344V12.891c0-.648.524-1.172 1.172-1.172h4.687c.648 0 1.172.524 1.172 1.172v24.765Zm-2.344 0V14.063h-2.343v23.593h2.343ZM23.516 21.094h2.343v16.562h-2.343V21.094Zm-7.032 16.562V30.47h-2.343v7.187h2.343ZM4.766 25.781h2.343v11.875H4.766V25.781Z" clip-rule="evenodd"/></svg>
